img/benefit-icon3.svg

<svg height="157" viewBox="0 0 157 157" width="157" xmlns="http://www.w3.org/2000/svg"><g fill="#0A0A0A"><path d="m79 156.6c-43.1886674 0-78.2-35.011333-78.2-78.2 0-43.1886674 35.0113326-78.2 78.2-78.2 43.188667 0 78.2 35.0113326 78.2 78.2 0 43.188667-35.011333 78.2-78.2 78.2zm0-2c42.084098 0 76.2-34.115902 76.2-76.2 0-42.0840979-34.115902-76.2-76.2-76.2-42.0840979 0-76.2 34.1159021-76.2 76.2 0 42.084098 34.1159021 76.2 76.2 76.2z"/><g stroke-linecap="round" stroke-linejoin="round" transform="translate(38 18)"><path d="m33.0632888 20.9940599c-.3132594-1.3337358-2.5807995-2.7854938-4.850578-2.7566407-2.9557538.0375732-4.9127108 2.378735-4.9127108 7.4625808v47.8940347c.0035721.5323647-.4131849.9778738-.9500624 1.0047176-.0020637.000124-.0041302.0002193-.0061983.0003083-2.7502029.1360498-5.1217118-.7189377-6.13236-2.7404177-.2257063-.437306-.4010118-.787917-.7910388-1.5763586-1.8755467-3.7914279-2.8567239-5.3323371-4.6535783-6.808327-1.96720034-1.6095276-4.6254705-1.9509568-6.67062326-.8057142-1.72420931.9852625-2.39223034 3.3109654-1.3278958 5.135618.04278831.0748795.66980486 1.1734048.85271543 1.4929813 2.2705439 3.9670346 3.67270362 6.19073 5.47447315 8.4971144 3.11534698 4.0888929 5.95385968 8.585298 8.58835618 13.5381555 1.5800798 2.9845952 3.8885443 5.6699518 6.9621543 8.3045014 1.550361 1.3118443 2.1700851 2.7203083 2.0529259 4.7109513-.02981.62601-.0615476 1.471303-.0942283 2.480371-.0261805.808363-.0514729 1.674889-.0749191 2.541474-.0082074.303352-.0155972.585021-.0220504.837765-.0065686.259846-.0065686.259846-.0079676.317208-.0134664.552121-.4719651.988786-1.0240857.97532-.5521205-.013467-.988786-.471965-.9753197-1.024086.0014245-.058402.0014245-.058402.0080246-.319491.0064782-.253722.0138944-.5364.0221304-.840808.023535-.869868.0489268-1.739796.0752356-2.552122.0329812-1.018345.0650551-1.872595.0960377-2.521918.0803603-1.366124-.2725386-2.168167-1.352517-3.082021-3.2548741-2.7898925-5.7224513-5.6603395-7.432081-8.889644-2.5847205-4.8592745-5.3657882-9.2646826-8.40515197-13.253969-1.86855926-2.3917558-3.31189366-4.6807504-5.62681175-8.7253144-.18361425-.320806-.81113937-1.4202223-.84894278-1.4864586-1.62821524-2.7912261-.60796891-6.3431948 2.07517553-7.876377 2.79939056-1.5676587 6.34139943-1.1127218 8.92334277.9997797 2.0905329 1.7172235 3.1788001 3.4263143 5.1782534 7.4682198.384973.778225.5568897 1.1220585.7814344 1.5572929.4893007.9786014 1.7137517 1.5481262 3.3055728 1.6450824v-46.8978688c0-6.1119875 2.7567065-9.4099118 6.8872892-9.4624192 1.8876403-.0239954 3.7867828.6891069 5.1155136 1.7850839.6551101-3.7920422 2.7470918-6.0226647 6.8971972-6.0226647 5.3868409 0 7.477317 3.0081745 7.7562233 8.4278304.0383473.7451584.0456027 1.341132.0440682 2.613263-.0002189.1809597-.0002189.1809597-.0002915.3589066 0 .5522847-.4477153 1-1 1s-1-.4477153-1-1c.0000735-.1799786.0000735-.1799786.0002929-.3613192.0014926-1.2373394-.0054716-1.8093926-.0414265-2.5080624-.2307512-4.4839158-1.6530699-6.5306184-5.7588664-6.5306184-3.3627219 0-4.7445915 1.8131354-5.063697 5.4347675-.0406102.4608982-.0627286.8944831-.0706746 1.3980518.0226861.1544223.0343716.3102882.0343716.4671807 0 .0935147-.0128362.1840313-.0368427.2698841.0022729.3322247.0084582.7009935.0177728 1.1239442.0156626.7111975.0190699.9021721.0190699 1.2061717v30.3c0 .5522847-.4477153 1-1 1s-1-.4477153-1-1v-30.3c0-.283023-.0033092-.4685009-.0185851-1.1621366-.015261-.6929631-.0224708-1.2500997-.0181261-1.7438035zm26.0172919 12.0020562c-.108312.5415598-.6351371.8927765-1.1766968.7844646-.5415598-.108312-.8927765-.6351371-.7844646-1.1766968.4223077-2.1115382 3.2647395-4.2038839 5.8805807-4.2038839 4.0627065 0 6 2.7983128 6 7.4 0 3.1237396.0031167 5.620748.0124986 11.2639625.0093682 5.6349403.0125014 8.1493615.0125014 11.2860375 0 8.7853229-.0350306 15.8089632-.125 22.55 0 4.1264299-.6227453 8.22617-1.8433261 12.0911616-.8101192 2.6618203-2.0384125 4.9047905-3.7352866 6.6013702-2.4110536 2.5115142-3.3374839 4.9118112-2.8375174 7.8285832l.6 3.3c.0987957.543376-.2616081 1.063959-.8049845 1.162755-.5433763.098796-1.0639596-.261608-1.1627553-.804985l-.3555556-1.955555c-.1333333-.733333-.1333333-.733333-.2461968-1.354366-.6189645-3.610627.5439927-6.623743 3.3785155-9.5760708 1.4572664-1.4572664 2.5294883-3.4152368 3.2535241-5.7940246 1.1616939-3.6786972 1.7535827-7.5752985 1.7536716-11.5122007.0899218-6.7441371.1249111-13.7594908.1249111-22.5366679 0-3.135199-.0031323-5.6488795-.0124986-11.2827125-.0093838-5.6443246-.0125014-8.1420688-.0125014-11.2672875 0-3.6205351-1.2319373-5.4-4-5.4-1.7030267 0-3.6931928 1.4649833-3.9194193 2.5961161zm-.1128965 8.5802538c-.0062898 1.6829451-.0136638 3.4338729-.0232499 5.5651648.0014684-.3264774-.0248956 5.4287843-.0305543 6.771476-.0093275 2.2132075-.01388 3.693316-.01388 4.6869893 0 .5522847-.4477153 1-1 1s-1-.4477153-1-1c0-.997332.0045588-2.4794976.0138978-4.6954181.0056605-1.3431223.0320268-7.0988862.0305568-6.7720426.0095839-2.1308271.016956-3.8812809.0232436-5.5636441.0400793-10.7239715.0264621-17.0064064-.0676982-18.2688952.001522-1.2139159-.0684573-2.0299149-.3361489-2.9235323-.536933-1.7924078-1.6584008-2.7764677-3.7638511-2.7764677-3.6029274 0-4.8 1.9521491-4.8 5.8v31.8c0 .5522847-.4477153 1-1 1s-1-.4477153-1-1v-31.8c0-4.8106107 1.8331161-7.8 6.8-7.8 3.0610951 0 4.905684 1.6185805 5.6797357 4.2025461.3385006 1.1299941.4220176 2.1038517.4203321 3.4223523.0949761 1.3129662.1081709 7.5003467.0676164 18.3514715zm-51.6676842-15.2763699c0 .5522847-.44771525 1-1 1s-1-.4477153-1-1c0-14.1862534 11.4815853-25.7 25.7-25.7.5522847 0 1 .44771525 1 1s-.4477153 1-1 1c-13.1125909 0-23.7 10.6170657-23.7 23.7z"/><path d="m13.5 26.3c0 .5522847-.4477153 1-1 1s-1-.4477153-1-1c0-11.1522847 8.9477153-20.1 20.1-20.1.5522847 0 1 .44771525 1 1s-.4477153 1-1 1c-10.0477153 0-18.1 8.0522847-18.1 18.1z"/></g></g></svg>

<svg xmlns="http://www.w3.org/2000/svg" width="157" height="157" viewBox="0 0 157 157"><g fill="none"><path fill="#000000" d="M79,156.6 C35.8113326,156.6 0.8,121.588667 0.8,78.4 C0.8,35.2113326 35.8113326,0.2 79,0.2 C122.188667,0.2 157.2,35.2113326 157.2,78.4 C157.2,121.588667 122.188667,156.6 79,156.6 Z M79,154.6 C121.084098,154.6 155.2,120.484098 155.2,78.4 C155.2,36.3159021 121.084098,2.2 79,2.2 C36.9159021,2.2 2.8,36.3159021 2.8,78.4 C2.8,120.484098 36.9159021,154.6 79,154.6 Z"/><g fill="#000000" stroke-linecap="round" stroke-linejoin="round" transform="translate(38 18)"><path d="M33.0632888 20.9940599C32.7500294 19.6603241 30.4824893 18.2085661 28.2127108 18.2374192 25.256957 18.2749924 23.3 20.6161542 23.3 25.7L23.3 73.5940347C23.3035721 74.1263994 22.8868151 74.5719085 22.3499376 74.5987523 22.3478739 74.5988763 22.3458074 74.5989716 22.3437393 74.5990606 19.5935364 74.7351104 17.2220275 73.8801229 16.2113793 71.8586429 15.985673 71.4213369 15.8103675 71.0707259 15.4203405 70.2822843 13.5447938 66.4908564 12.5636166 64.9499472 10.7667622 63.4739573 8.79956186 61.8644297 6.1412917 61.5230005 4.09613894 62.6682431 2.37192963 63.6535056 1.7039086 65.9792085 2.76824314 67.8038611 2.81103145 67.8787406 3.438048 68.9772659 3.62095857 69.2968424 5.89150247 73.263877 7.29366219 75.4875724 9.09543172 77.7939568 12.2107787 81.8828497 15.0492914 86.3792548 17.6837879 91.3321123 19.2638677 94.3167075 21.5723322 97.0020641 24.6459422 99.6366137 26.1963032 100.948458 26.8160273 102.356922 26.6988681 104.347565 26.6690581 104.973575 26.6373205 105.818868 26.6046398 106.827936 26.5784593 107.636299 26.5531669 108.502825 26.5297207 109.36941 26.5215133 109.672762 26.5141235 109.954431 26.5076703 110.207175 26.5011017 110.467021 26.5011017 110.467021 26.4997027 110.524383 26.4862363 111.076504 26.0277376 111.513169 25.475617 111.499703 24.9234965 111.486236 24.486831 111.027738 24.5002973 110.475617 24.5017218 110.417215 24.5017218 110.417215 24.5083219 110.156126 24.5148001 109.902404 24.5222163 109.619726 24.5304523 109.315318 24.5539873 108.44545 24.5793791 107.575522 24.6056879 106.763196 24.6386691 105.744851 24.670743 104.890601 24.7017256 104.241278 24.7820859 102.875154 24.429187 102.073111 23.3492086 101.159257 20.0943345 98.3693645 17.6267573 95.4989175 15.9171276 92.269613 13.3324071 87.4103385 10.5513394 83.0049304 7.51197563 79.015644 5.64341637 76.6238882 4.20008197 74.3348936 1.88516388 70.2903296 1.70154963 69.9695236 1.07402451 68.8701073 1.0362211 68.803871-.591994139 66.0126449.428252187 62.4606762 3.11139663 60.927494 5.91078719 59.3598353 9.45279606 59.8147722 12.0347394 61.9272737 14.1252723 63.6444972 15.2135395 65.353588 17.2129928 69.3954935 17.5979658 70.1737185 17.7698825 70.517552 17.9944272 70.9527864 18.4837279 71.9313878 19.7081789 72.5009126 21.3 72.5978688L21.3 25.7C21.3 19.5880125 24.0567065 16.2900882 28.1872892 16.2375808 30.0749295 16.2135854 31.974072 16.9266877 33.3028028 18.0226647 33.9579129 14.2306225 36.0498946 12 40.2 12 45.5868409 12 47.677317 15.0081745 47.9562233 20.4278304 47.9945706 21.1729888 48.001826 21.7689624 48.0002915 23.0410934 48.0000726 23.2220531 48.0000726 23.2220531 48 23.4 48 23.9522847 47.5522847 24.4 47 24.4 46.4477153 24.4 46 23.9522847 46 23.4 46.0000735 23.2200214 46.0000735 23.2200214 46.0002929 23.0386808 46.0017855 21.8013414 45.9948213 21.2292882 45.9588664 20.5306184 45.7281152 16.0467026 44.3057965 14 40.2 14 36.8372781 14 35.4554085 15.8131354 35.136303 19.4347675 35.0956928 19.8956657 35.0735744 20.3292506 35.0656284 20.8328193 35.0883145 20.9872416 35.1 21.1431075 35.1 21.3 35.1 21.3935147 35.0871638 21.4840313 35.0631573 21.5698841 35.0654302 21.9021088 35.0716155 22.2708776 35.0809301 22.6938283 35.0965927 23.4050258 35.1 23.5960004 35.1 23.9L35.1 54.2C35.1 54.7522847 34.6522847 55.2 34.1 55.2 33.5477153 55.2 33.1 54.7522847 33.1 54.2L33.1 23.9C33.1 23.616977 33.0966908 23.4314991 33.0814149 22.7378634 33.0661539 22.0449003 33.0589441 21.4877637 33.0632888 20.9940599zM59.0805807 32.9961161C58.9722687 33.5376759 58.4454436 33.8888926 57.9038839 33.7805807 57.3623241 33.6722687 57.0111074 33.1454436 57.1194193 32.6038839 57.541727 30.4923457 60.3841588 28.4 63 28.4 67.0627065 28.4 69 31.1983128 69 35.8 69 38.9237396 69.0031167 41.420748 69.0124986 47.0639625 69.0218668 52.6989028 69.025 55.213324 69.025 58.35 69.025 67.1353229 68.9899694 74.1589632 68.9 80.9 68.9 85.0264299 68.2772547 89.12617 67.0566739 92.9911616 66.2465547 95.6529819 65.0182614 97.8959521 63.3213873 99.5925318 60.9103337 102.104046 59.9839034 104.504343 60.4838699 107.421115L61.0838699 110.721115C61.1826656 111.264491 60.8222618 111.785074 60.2788854 111.88387 59.7355091 111.982666 59.2149258 111.622262 59.1161301 111.078885L58.7605745 109.12333C58.6272412 108.389997 58.6272412 108.389997 58.5143777 107.768964 57.8954132 104.158337 59.0583704 101.145221 61.8928932 98.1928932 63.3501596 96.7356268 64.4223815 94.7776564 65.1464173 92.3988686 66.3081112 88.7201714 66.9 84.8235701 66.9000889 80.8866679 66.9900107 74.1425308 67.025 67.1271771 67.025 58.35 67.025 55.214801 67.0218677 52.7011205 67.0125014 47.0672875 67.0031176 41.4229629 67 38.9252187 67 35.8 67 32.1794649 65.7680627 30.4 63 30.4 61.2969733 30.4 59.3068072 31.8649833 59.0805807 32.9961161zM58.9676842 41.5763699C58.9613944 43.259315 58.9540204 45.0102428 58.9444343 47.1415347 58.9459027 46.8150573 58.9195387 52.570319 58.91388 53.9130107 58.9045525 56.1262182 58.9 57.6063267 58.9 58.6 58.9 59.1522847 58.4522847 59.6 57.9 59.6 57.3477153 59.6 56.9 59.1522847 56.9 58.6 56.9 57.602668 56.9045588 56.1205024 56.9138978 53.9045819 56.9195583 52.5614596 56.9459246 46.8056957 56.9444546 47.1325393 56.9540385 45.0017122 56.9614106 43.2512584 56.9676982 41.5688952 57.0077775 30.8449237 56.9941603 24.5624888 56.9 23.3 56.901522 22.0860841 56.8315427 21.2700851 56.5638511 20.3764677 56.0269181 18.5840599 54.9054503 17.6 52.8 17.6 49.1970726 17.6 48 19.5521491 48 23.4L48 55.2C48 55.7522847 47.5522847 56.2 47 56.2 46.4477153 56.2 46 55.7522847 46 55.2L46 23.4C46 18.5893893 47.8331161 15.6 52.8 15.6 55.8610951 15.6 57.705684 17.2185805 58.4797357 19.8025461 58.8182363 20.9325402 58.9017533 21.9063978 58.9000678 23.2248984 58.9950439 24.5378646 59.0082387 30.7252451 58.9676842 41.5763699zM7.3 26.3C7.3 26.8522847 6.85228475 27.3 6.3 27.3 5.74771525 27.3 5.3 26.8522847 5.3 26.3 5.3 12.1137466 16.7815853.6 31 .6 31.5522847.6 32 1.04771525 32 1.6 32 2.15228475 31.5522847 2.6 31 2.6 17.8874091 2.6 7.3 13.2170657 7.3 26.3z"/><path d="M13.5,26.3 C13.5,26.8522847 13.0522847,27.3 12.5,27.3 C11.9477153,27.3 11.5,26.8522847 11.5,26.3 C11.5,15.1477153 20.4477153,6.2 31.6,6.2 C32.1522847,6.2 32.6,6.64771525 32.6,7.2 C32.6,7.75228475 32.1522847,8.2 31.6,8.2 C21.5522847,8.2 13.5,16.2522847 13.5,26.3 Z"/></g></g></svg>
